X:1
T:5.6 Staggered roll
M:4/4
L:1/8
K:C
%%score (RH) (LH)
V:RH clef=treble
V:LH clef=bass
[V:RH] z(3ceg z5 | z(3GBd z5 | z(3ceg z5 | z(3ceg z5 |
[V:LH] "C" (3C,E,G, z6 | "G" (3G,,DB,, z6 | "C" (3C,E,G, z6 | "C" (3C,E,G, z6 |
